Flat Remix/status/notification-audio-volume-low.svg

<?xml version="1.0" encoding="UTF-8" standalone="no"?>
<svg
   xmlns:dc="http://purl.org/dc/elements/1.1/"
   xmlns:cc="http://creativecommons.org/ns#"
   xmlns:rdf="http://www.w3.org/1999/02/22-rdf-syntax-ns#"
   xmlns:svg="http://www.w3.org/2000/svg"
   xmlns="http://www.w3.org/2000/svg"
   xmlns:sodipodi="http://sodipodi.sourceforge.net/DTD/sodipodi-0.dtd"
   xmlns:inkscape="http://www.inkscape.org/namespaces/inkscape"
   width="16"
   height="16"
   version="1"
   id="svg12"
   sodipodi:docname="notification-audio-volume-low.svg"
   inkscape:version="0.92.1 r15371">
  <metadata
     id="metadata18">
    <rdf:RDF>
      <cc:Work
         rdf:about="">
        <dc:format>image/svg+xml</dc:format>
        <dc:type
           rdf:resource="http://purl.org/dc/dcmitype/StillImage" />
        <dc:title></dc:title>
      </cc:Work>
    </rdf:RDF>
  </metadata>
  <defs
     id="defs16" />
  <sodipodi:namedview
     pagecolor="#ffffff"
     bordercolor="#666666"
     borderopacity="1"
     objecttolerance="10"
     gridtolerance="10"
     guidetolerance="10"
     inkscape:pageopacity="0"
     inkscape:pageshadow="2"
     inkscape:window-width="1863"
     inkscape:window-height="1059"
     id="namedview14"
     showgrid="false"
     inkscape:zoom="4.9166667"
     inkscape:cx="-2.1355932"
     inkscape:cy="24"
     inkscape:window-x="1137"
     inkscape:window-y="450"
     inkscape:window-maximized="1"
     inkscape:current-layer="svg12" />
  <g
     id="g25"
     transform="matrix(0.36249819,0,0,0.36249819,-0.69992031,-0.88120565)">
    <path
       id="path2"
       d="m 29,4 v 4 c 6.3273,2.1143 11,8.6571 11,16 0,7.3429 -4.6727,13.886 -11,16 v 4 C 37.591,41.771 44,33.714 44,24 44,14.286 37.591,6.229 29,4 Z"
       inkscape:connector-curvature="0"
       style="opacity:0.2;fill:#cccccc" />
    <path
       id="path4"
       d="m 4,14 v 20 h 9.0912 l 10.909,10 V 4 l -10.909,10 z"
       inkscape:connector-curvature="0"
       style="fill:#cccccc" />
    <path
       id="path6"
       d="m 34,24 c 0,-3.9 -2.011,-7.26 -5,-9 v 18 c 2.9609,-1.74 5,-5.1 5,-9 z"
       inkscape:connector-curvature="0"
       style="opacity:0.2;fill:#cccccc" />
    <path
       id="path8"
       d="m 4,34 v 1 h 9.0918 l 10.908,10 V 44 L 13.0918,34 h -9.092 z"
       inkscape:connector-curvature="0"
       style="opacity:0.2" />
    <path
       id="path10"
       d="M 24,4 13.092,14 H 4 v 1 h 9.092 L 24,5 Z"
       inkscape:connector-curvature="0"
       style="opacity:0.2;fill:#ffffff" />
  </g>
</svg>

<svg xmlns="http://www.w3.org/2000/svg" width="48" height="48" version="1">
 <path fill="#ccc" opacity=".2" d="m29 4v4c6.3273 2.1143 11 8.6571 11 16s-4.6727 13.886-11 16v4c8.591-2.229 15-10.286 15-20s-6.409-17.771-15-20z"/>
 <path fill="#ccc" d="m4 14v20h9.0912l10.909 10v-40l-10.909 10z"/>
 <path fill="#ccc" opacity=".2" d="m34 24c0-3.9-2.011-7.26-5-9v18c2.9609-1.74 5-5.1 5-9z"/>
 <path opacity=".2" d="m4 34v1h9.0918l10.908 10v-1l-10.908-10h-9.092z"/>
 <path fill="#fff" opacity=".2" d="m24 4-10.908 10h-9.092v1h9.092l10.908-10v-1z"/>
</svg>
